X: 37736
T: Soldier's Joy
R: hornpipe
M: 4/4
K: Dmajor
M:2/4
|:(d/B/)|A/F/D/F/ A/F/D/F/|Ad d(c/B/)|A/F/D/F/ A/F/D/F/|GE E(F/G/)|
A/F/D/F/ A/F/D/F/|Ad d>e|f/g/f/d/ e/g/e/c/|dd d:|
|:(d/e/)|f(f/d/) f/a/g/f/|e/d/c/d/ e/f/g/e/|f(f/d/) f/a/g/f/|e/d/c/B/ A(d/e/)|
f(f/d/) f/a/g/f/|e/d/c/d/ e/f/g/e/|f/a/f/d/ e/g/e/c/|dd d:|

